app/client/src/assets/icons/blueprintjs/20px/align-right.svg

<svg xmlns="http://www.w3.org/2000/svg" xml:space="preserve" viewBox="0 0 20 20"><path fill-rule="evenodd" d="M19 17H5c-.55 0-1 .45-1 1s.45 1 1 1h14c.55 0 1-.45 1-1s-.45-1-1-1zM1 3h18c.55 0 1-.45 1-1s-.45-1-1-1H1c-.55 0-1 .45-1 1s.45 1 1 1zm18 10h-6c-.55 0-1 .45-1 1s.45 1 1 1h6c.55 0 1-.45 1-1s-.45-1-1-1zm0-4H1c-.55 0-1 .45-1 1s.45 1 1 1h18c.55 0 1-.45 1-1s-.45-1-1-1zm0-4H9c-.55 0-1 .45-1 1s.45 1 1 1h10c.55 0 1-.45 1-1s-.45-1-1-1z" clip-rule="evenodd"/></svg>

<?xml version="1.0" encoding="utf-8"?>
<!-- Generator: Adobe Illustrator 17.1.0, SVG Export Plug-In . SVG Version: 6.00 Build 0)  -->
<!DOCTYPE svg PUBLIC "-//W3C//DTD SVG 1.1//EN" "http://www.w3.org/Graphics/SVG/1.1/DTD/svg11.dtd">
<svg version="1.1" id="Layer_1" xmlns="http://www.w3.org/2000/svg" xmlns:xlink="http://www.w3.org/1999/xlink" x="0px" y="0px"
	 viewBox="0 0 20 20" enable-background="new 0 0 20 20" xml:space="preserve">
<g id="alignment_right_2_">
	<g>
		<path fill-rule="evenodd" clip-rule="evenodd" d="M19,17H5c-0.55,0-1,0.45-1,1c0,0.55,0.45,1,1,1h14c0.55,0,1-0.45,1-1
			C20,17.45,19.55,17,19,17z M1,3h18c0.55,0,1-0.45,1-1c0-0.55-0.45-1-1-1H1C0.45,1,0,1.45,0,2C0,2.55,0.45,3,1,3z M19,13h-6
			c-0.55,0-1,0.45-1,1c0,0.55,0.45,1,1,1h6c0.55,0,1-0.45,1-1C20,13.45,19.55,13,19,13z M19,9H1c-0.55,0-1,0.45-1,1
			c0,0.55,0.45,1,1,1h18c0.55,0,1-0.45,1-1C20,9.45,19.55,9,19,9z M19,5H9C8.45,5,8,5.45,8,6c0,0.55,0.45,1,1,1h10
			c0.55,0,1-0.45,1-1C20,5.45,19.55,5,19,5z"/>
	</g>
</g>
</svg>
